X:126
T:[untitled]
Z:Jack Campin - http://www.campin.me.uk
S:Blaikie MS (NLS MS.1578) p37, Blaikie #120
M:3/4
L:1/4
V:1 midi program 1 74
V:2 midi program 1 46 bass middle = d transpose -24
K:D Dorian
Q:1/4=90
[V:1] A|G E D|C D E   |G  E D   |C2   A   |G E D   |C    D E   |G A B|c2
[V:2] z|c2  g|e d c   |c' c g   |c c' f   |e c g   |e    d c   |e f g|c2
%
[V:1] A|G A c|d2  e/d/|c  A G/A/|c2   B/c/|d A B/c/|A/G/ E C/D/|E D D|D2|]
[V:2] z|C c c|G g g   |e  f f   |e c  z   |f2  e   |c    c z   |c g g|g2|]
W:Transcription (c) Jack Campin 2009, no mirroring or republication without permission

